svg/aws-alb.svg

<?xml version="1.0" encoding="UTF-8"?>
<svg xmlns="http://www.w3.org/2000/svg" xmlns:xlink="http://www.w3.org/1999/xlink" width="32" height="32" viewBox="0 0 32 32">
<path fill-rule="evenodd" fill="rgb(61.568627%, 31.372549%, 14.509804%)" fill-opacity="1" d="M 0 16.632812 C 0 8.117188 7.136719 1.261719 16 1.261719 C 24.863281 1.261719 32 8.117188 32 16.632812 C 32 25.148438 24.863281 32 16 32 C 7.136719 32 0 25.144531 0 16.632812 M 0 16.632812 "/>
<path fill-rule="evenodd" fill="rgb(96.078431%, 52.156863%, 21.176471%)" fill-opacity="1" d="M 0 15.367188 C 0 6.855469 7.136719 0 16 0 C 24.863281 0 32 6.855469 32 15.367188 C 32 23.882812 24.863281 30.738281 16 30.738281 C 7.136719 30.738281 0 23.882812 0 15.367188 M 0 15.367188 "/>
<path fill-rule="evenodd" fill="rgb(100%, 100%, 100%)" fill-opacity="1" d="M 20.667969 2.953125 L 20.667969 8.535156 L 11.332031 8.535156 L 11.332031 2.953125 Z M 27.894531 19.105469 L 27.894531 23.652344 L 23.160156 23.652344 L 23.160156 19.105469 Z M 21.910156 19.105469 L 21.910156 23.652344 L 17.179688 23.652344 L 17.179688 19.105469 Z M 14.628906 19.105469 L 14.628906 23.652344 L 9.894531 23.652344 L 9.894531 19.105469 Z M 8.644531 19.105469 L 8.644531 23.652344 L 3.910156 23.652344 L 3.910156 19.105469 Z M 5.851562 15.171875 L 6.703125 15.171875 L 6.703125 19.632812 L 5.851562 19.632812 Z M 5.851562 15.171875 L 12.6875 15.171875 L 12.6875 15.988281 L 5.851562 15.988281 Z M 11.835938 15.171875 L 12.6875 15.171875 L 12.6875 19.632812 L 11.835938 19.632812 Z M 19.117188 15.171875 L 19.96875 15.171875 L 19.96875 19.632812 L 19.117188 19.632812 Z M 19.117188 15.171875 L 25.953125 15.171875 L 25.953125 15.988281 L 19.117188 15.988281 Z M 25.101562 15.171875 L 25.953125 15.171875 L 25.953125 19.632812 L 25.101562 19.632812 Z M 8.847656 11.988281 L 9.699219 11.988281 L 9.699219 15.582031 L 8.847656 15.582031 Z M 15.574219 7.710938 L 16.425781 7.710938 L 16.425781 12.054688 L 15.574219 12.054688 Z M 8.847656 11.644531 L 22.976562 11.644531 L 22.976562 12.464844 L 8.847656 12.464844 Z M 22.125 11.988281 L 22.976562 11.988281 L 22.976562 15.582031 L 22.125 15.582031 Z M 22.125 11.988281 "/>
</svg>

<svg role="img" viewBox="0 0 32 32" height="32" width="32" xmlns="http://www.w3.org/2000/svg"><path d="M0 16.633C0 8.117 7.137 1.262 16 1.262s16 6.855 16 15.37C32 25.149 24.863 32 16 32S0 25.145 0 16.633m0 0" fill="rgb(61.568627%, 31.372549%, 14.509804%)" fill-rule="evenodd"/><path d="M0 15.367C0 6.855 7.137 0 16 0s16 6.855 16 15.367c0 8.516-7.137 15.371-16 15.371S0 23.883 0 15.368m0 0" fill="rgb(96.078431%, 52.156863%, 21.176471%)" fill-rule="evenodd"/><path d="M20.668 2.953v5.582h-9.336V2.953Zm7.227 16.152v4.547H23.16v-4.547Zm-5.985 0v4.547h-4.73v-4.547Zm-7.281 0v4.547H9.895v-4.547Zm-5.984 0v4.547H3.91v-4.547Zm-2.793-3.933h.851v4.46h-.851Zm0 0h6.836v.816H5.852Zm5.984 0h.851v4.46h-.851Zm7.281 0h.852v4.46h-.852Zm0 0h6.836v.816h-6.836Zm5.985 0h.851v4.46h-.851ZM8.848 11.988h.851v3.594h-.851Zm6.726-4.277h.852v4.344h-.852Zm-6.726 3.934h14.129v.82H8.847Zm13.277.343h.852v3.594h-.852Zm0 0" fill="rgb(100%, 100%, 100%)" fill-rule="evenodd"/></svg>
